X: 15865
T: Grace's
R: hornpipe
M: 4/4
K: Gmajor
|:DF|GABG ABcA|dgfa g3|fegc edGB|(3cBA (3BAG ADFA|
GABG ABcA|dgfa gfgf|edcB cBAG|D2 F2 G2:|
|:ga|bgdg afdf|gece d2 def|gagf edGBd|(3cBA (3BAG A2 DFA|
GABG ABcA|dgfa gfgf|edcB cBAG|D2 F2 G2:|

